X:1
T:Polka 6-2
C:Bert Van Vreckem, januari 2006
Z:Bert Van Vreckem <bert.vanvreckem@gmail.com> 2006-01-26
R:Polka
M:2/4
L:1/8
K:G
D|:GG/G/ GG|!segno!GA B/G/B/c/|dd/d/ dd|dc B2|cc/B/ Ad|B/c/B/A/ G<G|
AA/G/ F/G/A/F/|[1G/F/E/D/ C/B,/A,/G,/:|[2 GBG2!fine!||
[K:A] |:AA/A/ AA|A/B/c/d/ e2|d/e/d/c/ B/c/d/B/|c/d/c/B/ A/G/F/E/|
AA/A/ AA|A/B/c/d/ e2|d/e/d/c/ B/c/d/B/|[1 .c2 .c2:|[2c2 .=c2||
BG GG!segno!|
